icons/nova-filled.svg

<svg width="256" height="256" viewBox="0 0 256 256" fill="none" xmlns="http://www.w3.org/2000/svg">
<rect width="256" height="256" rx="60" fill="#4099DE" />
<path d="M192.767 191.45C175.149 208.519 151.3 218.069 126.463 218C97.6166 218 71.8489 205.4 54.6936 185.6C91.9443 215.345 146.194 212.951 180.537 180.052C186.053 174.767 190.435 168.464 193.426 161.511C196.417 154.557 197.958 147.092 197.958 139.552C197.958 132.011 196.417 124.546 193.426 117.593C190.435 110.639 186.053 104.336 180.537 99.0517C157.201 76.7047 119.798 76.7047 96.4628 99.0517C94.0932 101.314 92.2106 104.015 90.9254 106.997C89.6402 109.978 88.9782 113.179 88.9782 116.413C88.9782 119.646 89.6402 122.848 90.9254 125.829C92.2106 128.81 94.0932 131.511 96.4628 133.774C101.267 138.372 107.73 140.949 114.463 140.949C121.195 140.949 127.659 138.372 132.463 133.774C134.061 132.235 136.217 131.372 138.463 131.372C140.709 131.372 142.865 132.235 144.463 133.774C145.249 134.528 145.874 135.426 146.3 136.418C146.726 137.41 146.946 138.474 146.946 139.549C146.946 140.625 146.726 141.689 146.3 142.681C145.874 143.672 145.249 144.571 144.463 145.325C136.453 152.984 125.682 157.275 114.463 157.275C103.244 157.275 92.4725 152.984 84.4628 145.325C80.5205 141.555 77.3888 137.056 75.251 132.091C73.1131 127.127 72.012 121.797 72.012 116.413C72.012 111.028 73.1131 105.698 75.251 100.734C77.3888 95.7695 80.5205 91.2705 84.4628 87.5002C114.454 58.7452 162.546 58.7452 192.537 87.5002C199.617 94.275 205.246 102.355 209.095 111.269C212.945 120.184 214.938 129.756 214.96 139.428C214.981 149.101 213.03 158.681 209.22 167.612C205.411 176.542 199.818 184.646 192.767 191.45ZM198.232 70.4002C160.981 40.6552 106.732 43.0492 72.3843 75.9487C66.8677 81.2333 62.4859 87.5363 59.4949 94.4899C56.5038 101.443 54.9633 108.908 54.9633 116.449C54.9633 123.989 56.5038 131.454 59.4949 138.408C62.4859 145.361 66.8677 151.664 72.3843 156.949C95.7243 179.296 133.123 179.296 156.463 156.949C158.832 154.686 160.715 151.985 162 149.004C163.285 146.023 163.947 142.821 163.947 139.588C163.947 136.354 163.285 133.153 162 130.172C160.715 127.19 158.832 124.489 156.463 122.227C151.659 117.628 145.195 115.052 138.463 115.052C131.73 115.052 125.267 117.628 120.463 122.227C117.154 125.377 111.772 125.377 108.463 122.227C107.676 121.473 107.052 120.574 106.626 119.582C106.199 118.591 105.98 117.526 105.98 116.451C105.98 115.376 106.199 114.311 106.626 113.32C107.052 112.328 107.676 111.429 108.463 110.675C116.472 103.016 127.244 98.7256 138.463 98.7256C149.682 98.7256 160.453 103.016 168.463 110.675C172.405 114.446 175.537 118.944 177.675 123.909C179.812 128.873 180.914 134.203 180.914 139.588C180.914 144.972 179.812 150.302 177.675 155.266C175.537 160.231 172.405 164.73 168.463 168.5C138.472 197.251 90.3751 197.251 60.3843 168.5C53.3021 161.714 47.6756 153.622 43.8326 144.694C39.9896 135.767 38.0069 126.184 38 116.502C37.9931 106.82 39.9622 97.2342 43.7925 88.3018C47.6229 79.3694 53.2379 71.2695 60.3105 64.4737C77.9044 47.4692 101.689 37.9506 126.463 38.0002C155.309 38.0002 181.077 50.6002 198.232 70.4002Z" fill="white"/>
</svg>

<svg xmlns="http://www.w3.org/2000/svg" width="256" height="256" fill="none"><rect width="256" height="256" fill="#4099DE" rx="60"/><path fill="#fff" d="M192.767 191.45c-17.618 17.069-41.467 26.619-66.304 26.55-28.846 0-54.614-12.6-71.77-32.4 37.251 29.745 91.501 27.351 125.844-5.548a56.75 56.75 0 0 0 12.889-18.541 55.6 55.6 0 0 0 4.532-21.959 55.55 55.55 0 0 0-4.532-21.959 56.7 56.7 0 0 0-12.889-18.541c-23.336-22.347-60.739-22.347-84.074 0a24.3 24.3 0 0 0-5.538 7.945 23.8 23.8 0 0 0-1.947 9.416c0 3.233.662 6.435 1.947 9.416a24.3 24.3 0 0 0 5.538 7.945c4.804 4.598 11.267 7.175 18 7.175 6.732 0 13.196-2.577 18-7.175a8.65 8.65 0 0 1 6-2.402c2.246 0 4.402.863 6 2.402a8.1 8.1 0 0 1 1.837 2.644c.426.992.646 2.056.646 3.131 0 1.076-.22 2.14-.646 3.132a8.1 8.1 0 0 1-1.837 2.644c-8.01 7.659-18.781 11.95-30 11.95s-21.99-4.291-30-11.95a40.5 40.5 0 0 1-9.212-13.234 39.6 39.6 0 0 1-3.239-15.678 39.6 39.6 0 0 1 3.239-15.679A40.5 40.5 0 0 1 84.463 87.5c29.991-28.755 78.083-28.755 108.074 0 7.08 6.775 12.709 14.855 16.558 23.769a71.4 71.4 0 0 1 5.865 28.159 71.4 71.4 0 0 1-5.74 28.184c-3.809 8.93-9.402 17.034-16.453 23.838m5.465-121.05c-37.251-29.745-91.5-27.35-125.848 5.549a56.7 56.7 0 0 0-12.89 18.54 55.55 55.55 0 0 0-4.53 21.96c0 7.54 1.54 15.005 4.53 21.959a56.7 56.7 0 0 0 12.89 18.541c23.34 22.347 60.739 22.347 84.079 0a24.3 24.3 0 0 0 5.537-7.945 23.8 23.8 0 0 0 1.947-9.416c0-3.234-.662-6.435-1.947-9.416a24.3 24.3 0 0 0-5.537-7.945c-4.804-4.599-11.268-7.175-18-7.175-6.733 0-13.196 2.576-18 7.175-3.309 3.15-8.691 3.15-12 0a8.1 8.1 0 0 1-1.837-2.645 7.9 7.9 0 0 1 0-6.262 8.1 8.1 0 0 1 1.837-2.645c8.009-7.659 18.781-11.95 30-11.95s21.99 4.291 30 11.95a40.5 40.5 0 0 1 9.212 13.234 39.6 39.6 0 0 1 3.239 15.679 39.6 39.6 0 0 1-3.239 15.678 40.5 40.5 0 0 1-9.212 13.234c-29.991 28.751-78.088 28.751-108.079 0-7.082-6.786-12.708-14.878-16.551-23.806A71.4 71.4 0 0 1 38 116.502a71.4 71.4 0 0 1 5.792-28.2c3.83-8.933 9.446-17.033 16.518-23.828C77.905 47.469 101.69 37.95 126.464 38c28.846 0 54.614 12.6 71.769 32.4"/></svg>
